X:405
T: Tom Billy's
S: "Johnny O'Leary of Sliabh Luachra" (#222)
N: version of "Lakes of Sligo"
Z: B.Black
L: 1/8
M: 2/4
R: polka
Q: 300
K: D
FA AB/c/|de d>c| BA B/c/d|e/f/e/d/ ef|
FA AB/c/|de f/g/f/e/|dB Af/g/|ef d2 :|
f/g/a de|fa ag/a/|gb e>f|gb b>g|
fa e/f/g/e/|dd f/g/f/e/|dB Af/g/|ef d2 :|
